src/svg/diff.svg

<svg xmlns="http://www.w3.org/2000/svg" width="512" height="512" viewBox="0 0 512 512"><path d="M410.5 118.667h-34.334v34.333h-34.332v-34.333h-34.334v-34.334h34.334v-34.333h34.332v34.333h34.334v34.334zm-70.896 68.666c-9.908 39.782-41.978 46.747-82.698 55.331-29.354 6.186-62.531 13.311-86.739 35.801v-128.617c19.95-7.091 34.333-25.951 34.333-48.348 0-28.449-23.051-51.5-51.5-51.5s-51.5 23.051-51.5 51.5c0 22.397 14.384 41.257 34.333 48.348v212.304c-19.95 7.091-34.333 25.951-34.333 48.348 0 28.449 23.051 51.5 51.5 51.5s51.5-23.051 51.5-51.5c0-22.229-14.149-40.988-33.864-48.215 4.627-67.324 44.124-75.656 93.344-86.033 44.827-9.439 98.423-21.107 110.459-88.918h-34.835zm-217.5-85.833c0-17.041 13.864-30.896 30.896-30.896s30.896 13.855 30.896 30.896-13.863 30.896-30.896 30.896-30.896-13.855-30.896-30.896zm61.792 309c0 17.033-13.864 30.896-30.896 30.896s-30.896-13.863-30.896-30.896 13.864-30.896 30.896-30.896 30.896 13.863 30.896 30.896z"/></svg>

<?xml version="1.0" encoding="utf-8"?>

<!-- License Agreement at http://iconmonstr.com/license/ -->

<!DOCTYPE svg PUBLIC "-//W3C//DTD SVG 1.1//EN" "http://www.w3.org/Graphics/SVG/1.1/DTD/svg11.dtd">
<svg version="1.1" xmlns="http://www.w3.org/2000/svg" xmlns:xlink="http://www.w3.org/1999/xlink" x="0px" y="0px"
	 width="512px" height="512px" viewBox="0 0 512 512" style="enable-background:new 0 0 512 512;" xml:space="preserve">
<path id="code-fork-4-icon" d="M410.5,118.667h-34.334V153h-34.332v-34.333H307.5V84.333h34.334V50h34.332v34.333H410.5V118.667z
	 M339.604,187.333c-9.908,39.782-41.978,46.747-82.698,55.331c-29.354,6.186-62.531,13.311-86.739,35.801V149.848
	c19.95-7.091,34.333-25.951,34.333-48.348c0-28.449-23.051-51.5-51.5-51.5s-51.5,23.051-51.5,51.5
	c0,22.397,14.384,41.257,34.333,48.348v212.304c-19.95,7.091-34.333,25.951-34.333,48.348c0,28.449,23.051,51.5,51.5,51.5
	s51.5-23.051,51.5-51.5c0-22.229-14.149-40.988-33.864-48.215c4.627-67.324,44.124-75.656,93.344-86.033
	c44.827-9.439,98.423-21.107,110.459-88.918H339.604z M122.104,101.5c0-17.041,13.864-30.896,30.896-30.896
	s30.896,13.855,30.896,30.896S170.033,132.396,153,132.396S122.104,118.541,122.104,101.5z M183.896,410.5
	c0,17.033-13.864,30.896-30.896,30.896s-30.896-13.863-30.896-30.896s13.864-30.896,30.896-30.896S183.896,393.467,183.896,410.5z"
	/>
</svg>
